X: 129
T:My Maryanne
M:C|
L:1/8
R:Reel
K:C
c2cB cAGc|Addc dcAB|c2cB cAGE|FDDE FGAB|!
c2cB cAGc|Ad~d2 dcAB|cedB cAGE|FAGE EDD2:|!
|:egge cBcd|eaag aged|e2ec d2dB|cAGA c2cd|!
egge cBcd|ea~a2 aged|~e3c ~d3B|cAGA c3z:|]!
